packages/foundations/assets/icons/functional/images/social/star_filled.svg

<svg xmlns="http://www.w3.org/2000/svg" width="32" height="32" fill="none"><path fill="#1A1C1F" fill-rule="evenodd" d="M15.547 2.766c-.118.053-.25.139-.294.189-.044.051-.956 1.849-2.026 3.995l-1.947 3.903-4.293.618c-2.713.39-4.353.648-4.454.701-.503.263-.679.951-.36 1.409.081.116 1.521 1.55 3.2 3.187s3.054 2.987 3.054 2.999-.336 1.95-.746 4.305c-.814 4.675-.794 4.485-.499 4.875.072.096.23.224.35.286.459.234.374.27 4.588-1.943 2.105-1.106 3.851-2.01 3.88-2.01s1.775.904 3.879 2.009c4.06 2.131 4.075 2.138 4.511 1.994.104-.034.274-.156.377-.27.364-.402.386-.151-.446-4.922a1057 1057 0 0 1-.748-4.318c0-.016 1.374-1.368 3.054-3.005s3.119-3.071 3.2-3.187c.319-.458.143-1.146-.36-1.409-.101-.053-1.741-.311-4.454-.701l-4.293-.618-1.947-3.903c-1.07-2.146-1.982-3.944-2.026-3.995-.235-.27-.82-.362-1.2-.189"/></svg>

<svg width="32" height="32" viewBox="0 0 32 32" fill="none" xmlns="http://www.w3.org/2000/svg"><path d="M15.547 2.766 C 15.429 2.819,15.297 2.905,15.253 2.955 C 15.209 3.006,14.297 4.804,13.227 6.950 L 11.280 10.853 6.987 11.471 C 4.274 11.861,2.634 12.119,2.533 12.172 C 2.030 12.435,1.854 13.123,2.173 13.581 C 2.254 13.697,3.694 15.131,5.373 16.768 C 7.053 18.405,8.427 19.755,8.427 19.767 C 8.427 19.780,8.091 21.717,7.681 24.072 C 6.867 28.747,6.887 28.557,7.182 28.947 C 7.254 29.043,7.412 29.171,7.532 29.233 C 7.991 29.467,7.906 29.503,12.120 27.290 C 14.225 26.184,15.971 25.280,16.000 25.280 C 16.029 25.280,17.775 26.184,19.879 27.289 C 23.939 29.420,23.954 29.427,24.390 29.283 C 24.494 29.249,24.664 29.127,24.767 29.013 C 25.131 28.611,25.153 28.862,24.321 24.091 C 23.910 21.732,23.573 19.789,23.573 19.773 C 23.573 19.757,24.947 18.405,26.627 16.768 C 28.306 15.131,29.746 13.697,29.827 13.581 C 30.146 13.123,29.970 12.435,29.467 12.172 C 29.366 12.119,27.726 11.861,25.013 11.471 L 20.720 10.853 18.773 6.950 C 17.703 4.804,16.791 3.006,16.747 2.955 C 16.512 2.685,15.927 2.593,15.547 2.766 " fill="#1A1C1F" stroke="none" fill-rule="evenodd"></path></svg>
